app/assets/images/my-wallets/icon_plus.inline.svg

<?xml version="1.0" encoding="UTF-8"?>
<svg width="24px" height="24px" viewBox="0 0 24 24" version="1.1" xmlns="http://www.w3.org/2000/svg" xmlns:xlink="http://www.w3.org/1999/xlink">
    <!-- Generator: Sketch 60 (88103) - https://sketch.com -->
    <title>Icon / mobile / add stakepool</title>
    <desc>Created with Sketch.</desc>
    <defs>
        <path d="M18.1820831,6.62886521 L18.1820831,6.62886521 C17.8271343,6.27391641 17.2537555,6.27391641 16.8988067,6.62886521 L12.4482947,11.0702759 L7.9977828,6.61976396 C7.642834,6.26481516 7.06945516,6.26481516 6.71450635,6.61976396 L6.71450635,6.61976396 C6.35955755,6.97471277 6.35955755,7.54809161 6.71450635,7.90304041 L11.1650183,12.3535524 L6.71450635,16.8040643 C6.35955755,17.1590131 6.35955755,17.7323919 6.71450635,18.0873408 L6.71450635,18.0873408 C7.06945516,18.4422896 7.642834,18.4422896 7.9977828,18.0873408 L12.4482947,13.6368288 L16.8988067,18.0873408 C17.2537555,18.4422896 17.8271343,18.4422896 18.1820831,18.0873408 L18.1820831,18.0873408 C18.537032,17.7323919 18.537032,17.1590131 18.1820831,16.8040643 L13.7315712,12.3535524 L18.1820831,7.90304041 C18.5279307,7.55719286 18.5279307,6.97471277 18.1820831,6.62886521 Z" id="path-1"></path>
    </defs>
    <g id="Icon-/-mobile-/-add-stakepool" stroke="none" stroke-width="1" fill="none" fill-rule="evenodd">
        <mask id="mask-2" fill="white">
            <use xlink:href="#path-1"></use>
        </mask>
        <use id="Mask" fill="#FFFFFF" transform="translate(12.448295, 12.353552) rotate(45.000000) translate(-12.448295, -12.353552) " xlink:href="#path-1"></use>
    </g>
</svg>

<svg width="24" height="24" xmlns="http://www.w3.org/2000/svg" xmlns:xlink="http://www.w3.org/1999/xlink"><defs><path d="M18.182 6.629a.906.906 0 00-1.283 0l-4.45 4.441-4.451-4.45a.906.906 0 10-1.283 1.283l4.45 4.45-4.45 4.451a.906.906 0 101.283 1.283l4.45-4.45 4.45 4.45a.906.906 0 101.283-1.283l-4.45-4.45 4.451-4.451a.912.912 0 000-1.274z" id="a"/></defs><use fill="#FFF" transform="rotate(45 12.448 12.354)" xlink:href="#a" fill-rule="evenodd"/></svg>
